X:1
T:Dr Caradog Roberts
T:Frances Ridley Havergal
T:Copyright © 2001 by the Choral Public Domain Library (http://www.cpdl.org) Edition may be freely distributed, duplicated, performed, or recorded.
T:Who is on the Lord‘s Side?
T:Copyright © 2001 by the Choral Public Domain Library (http://www.cpdl.org) Edition may be freely distributed, duplicated, performed, or recorded.
T:Copyright © 2001 by the Choral Public Domain Library (http://www.cpdl.org) Edition may be freely distributed, duplicated, performed, or recorded.
T:Copyright © 2001 by the Choral Public Domain Library (http://www.cpdl.org) Edition may be freely distributed, duplicated, performed, or recorded.
T:Copyright © 2001 by the Choral Public Domain Library (http://www.cpdl.org) Edition may be freely distributed, duplicated, performed, or recorded.
C:Dr Caradog Roberts
Z:Frances Ridley Havergal
Z:Copyright © 2001 by the Choral Public Domain Library (http://www.cpdl.org)
Z:Edition may be freely distributed, duplicated, performed, or recorded.
%%score { ( 1 2 ) | ( 3 4 ) }
L:1/8
M:4/4
K:G
V:1 treble nm=" " snm=" "
V:2 treble 
V:3 bass 
V:4 bass 
V:1
 D2 G2 E2 A2 | G4 F4 | F2 B2 G2 c2 | ((B4 A4)) | A2 d2 d2 c2 | A2 c2 c2 B2 | A4 A4 | [FA]8 | %8
w: Who- is- on- the-|Lord‘s- side?-|Who- will- ~~serve- the-|King?- *|Who- will- be- His-|hel- per,- o- ther-|lives- to-|bring?-|
 B2 A2 G2 A2 | G4 F4 | G2 F2 F2 E2 | D8 | D2 G2 E2 A2 | F2 B2 G2 c2 | B4 A4 | G8 | B2 B2 B3 B | %17
w: Who- will- leave- the-|world‘s- side?-|Who- will- face- the-|foe?-|Who- is- on- the-|Lord‘s- side? ~~~~~~Who- will-|for- Him-|go?-|By- Thy- call- of-|
 B4 B4 | d2 d2 d3 d | d8 | e2 e2 d2 G2 | c2 d2 B2 A2 | B4 A4 | G8 |] %24
w: mer- cy,-|By- Thy- ~~Grace- di-|vine,-|We- are- on- the-|Lord‘s- side,- Sa- viour,-|we- are-|Thine!-|
V:2
 B,2 D2 C2 E2 | D4 D4 | D2 F2 E2 G2 | G4 F4 | F2 G2 A2 F2 | F2 GA G2 G2 | F4 E2 G2 | x8 | %8
 G2 F2 E2 E2 | E4 ^D4 | E2 D2 D2 ^C2 | D8 | D2 D2 C2 E2 | D2 F2 E2 G2 | D2 G2 G2 F2 | G8 | %16
 z2 z2 ^D3 E | F2 A2 GF E2 | z2 z2 F3 G | A2 c2 BA G2 | G2 G2 G2 D2 | E2 F2 D2 E2 | D2 G2 G2 F2 | %23
 G8 |] %24
V:3
 G,2 G,2 G,2 C2 | B,4 A,4 | A,2 D2 B,2 E2 | D8 | D2 D2 D2 D2 | D2 ED D2 D2 | D4 ^C4 | D8 | %8
w: ||||||||
w: ||||||||
 D2 D2 B,2 C2 | B,4 B,4 | G,2 A,B, A,2 A,G, | F,8 | G,2 B,2 G,2 C2 | A,2 D2 B,2 E2 | %14
w: ||||||
w: ||||||
 G,2 B,2 D2- C2 | B,8 | B,2 B,2 B,3 B, | B,4 B,4 | D2 D2 D3 D | D8 | C2 C2 D2 D2 | %21
w: |||||||
w: ||* * By- Thy-|call~of- mer\-~\-cy,|_ _ By- Thy-|||
"^Fierce may be the conflict,Stong may be the foe,But the King‘s own armyNone can overthrow.Round His standard rangingVict‘ry is secure,For His truth unchangingMakes the triumph sure!Joyfully enlistingBy Thy Grace divine,We are on the Lord‘s side,Saviour, we are Thine." C2 A,2 G,2 G,2 | %22
w: |
w: |
 G,2"^Chosen to be soldiersIn an alien land,Chosen, called and faithfulFor our Captain‘s band.In the Service RoyalLet us not grow cold;Let us be right loyal, Noble, true and bold.Master, Thou wilt keep usBy Thy Grace Divine.Always on the Lord‘s side,Saviour, always Thine." B,2 D2 C2 | %23
w: |
w: |
 B,8 |] %24
w: |
w: |
V:4
 G,,2 B,,2 C,2 A,,2 | D,4 D,4 | D,2 B,,2 E,2 C,2 | D,8 | D,2 E,2 F,2 D,2 | D,2 E,F, G,2 G,2 | %6
 A,4 A,,4 | D,8 | G,2 D,2 E,2 A,,2 | B,,4 B,,4 | E,2 F,G, A,2 A,,2 | D,8 | B,,2 G,,2 C,2 A,,2 | %13
 D,2 B,,2 E,2 C,2 | D,4 D,4 | G,,8 | z2 z2 B,,3 ^C, | ^D,2 B,,2 E,F, G,2 | z2 z2 D,3 E, | %19
 F,2 D,2 G,A, B,2 | C,2 C2 B,2 B,2 | A,2 D,2 G,2 C,2 | D,4 D,4 | G,,8 |] %24

